src/static/logos/flocker.svg

<?xml version="1.0" encoding="UTF-8" standalone="no"?>
<svg width="256px" height="223px" viewBox="0 0 256 223" version="1.1" xmlns="http://www.w3.org/2000/svg" xmlns:xlink="http://www.w3.org/1999/xlink" preserveAspectRatio="xMidYMid">
    <g>
        <path d="M63.0077519,186.542636 L52.0930233,138.418605 L0,123.03876 L45.1472868,90.2945736 L111.627907,104.186047 L149.333333,44.6511628 L255.007752,0 L209.364341,140.899225 L256,222.75969 L63.0077519,186.542636 L63.0077519,186.542636 Z M247.069767,215.813953 L151.813953,49.6124031 L68.4651163,182.573643 L247.069767,215.813953 L247.069767,215.813953 Z M65.9844961,176.620155 L109.147287,108.651163 L47.627907,95.751938 L65.9844961,176.620155 L65.9844961,176.620155 Z M206.387597,134.945736 L247.069767,8.93023256 L156.27907,47.1317829 L206.387597,134.945736 L206.387597,134.945736 Z M51.1007752,132.96124 L43.1627907,97.7364341 L11.4108527,121.054264 L51.1007752,132.96124 L51.1007752,132.96124 Z" fill="#6AB5B0"></path>
    </g>
</svg>

<svg width="256" height="223" xmlns="http://www.w3.org/2000/svg" preserveAspectRatio="xMidYMid"><path d="M63.008 186.543l-10.915-48.124L0 123.039l45.147-32.744 66.48 13.891 37.706-59.535L255.008 0l-45.644 140.9L256 222.76 63.008 186.543zm184.062 29.271L151.814 49.612 68.465 182.574l178.605 33.24zM65.984 176.62l43.163-67.969-61.52-12.9 18.357 80.87zm140.404-41.674L247.07 8.93l-90.79 38.202 50.108 87.814zM51.1 132.96l-7.938-35.225-31.752 23.318L51.1 132.96z" fill="#6AB5B0"/></svg>
